Numix-GalliumOS/48/devices/printer1.svg

<svg xmlns="http://www.w3.org/2000/svg" viewBox="0 0 48 48">
 <rect width="24" height="13" x="12" y="8" style="fill:#f8e9b8;fill-opacity:1;stroke:none"/>
 <path d="m 10 21 c -1.108 0 -2 0.892 -2 2 l 0 12 c 0 1.108 0.892 2 2 2 l 2 0 l 0 -6 l 24 0 l 0 6 l 2 0 c 1.108 0 2 -0.892 2 -2 l 0 -12 c 0 -1.108 -0.892 -2 -2 -2 l -28 0 z" style="fill:#749ebb;fill-opacity:1;stroke:none"/>
 <rect width="24" height="9" x="12" y="31" style="fill:#f8e9b8;fill-opacity:1;stroke:none"/>
 <rect width="24" height="1" x="12" y="22.02" style="fill:#55809d;fill-opacity:1;stroke:none"/>
 <rect width="24" height="5.983" x="12" y="24" style="fill:#55809d;fill-opacity:1;stroke:none"/>
 <path d="m 36 25 a 1 1 0 1 1 -2 0 1 1 0 1 1 2 0 z" transform="translate(-1.0169492,1.0169492)" style="fill:#eee8d5;fill-opacity:1;stroke:none"/>
 <rect width="2" height="16" x="36" y="21" style="fill:#eee8d5;opacity:0.311;fill-opacity:1;stroke:none"/>
</svg>

<?xml version="1.0" encoding="UTF-8" standalone="no"?>
<svg
   xmlns:dc="http://purl.org/dc/elements/1.1/"
   xmlns:cc="http://creativecommons.org/ns#"
   xmlns:rdf="http://www.w3.org/1999/02/22-rdf-syntax-ns#"
   xmlns:svg="http://www.w3.org/2000/svg"
   xmlns="http://www.w3.org/2000/svg"
   xmlns:sodipodi="http://sodipodi.sourceforge.net/DTD/sodipodi-0.dtd"
   xmlns:inkscape="http://www.inkscape.org/namespaces/inkscape"
   viewBox="0 0 48 48"
   id="svg2"
   version="1.1"
   inkscape:version="0.91 r"
   width="100%"
   height="100%"
   sodipodi:docname="yast-printer.svg">
  <metadata
     id="metadata12">
    <rdf:RDF>
      <cc:Work
         rdf:about="">
        <dc:format>image/svg+xml</dc:format>
        <dc:type
           rdf:resource="http://purl.org/dc/dcmitype/StillImage" />
      </cc:Work>
    </rdf:RDF>
  </metadata>
  <defs
     id="defs10" />
  <sodipodi:namedview
     pagecolor="#ffffff"
     bordercolor="#666666"
     borderopacity="1"
     objecttolerance="10"
     gridtolerance="10"
     guidetolerance="10"
     inkscape:pageopacity="0"
     inkscape:pageshadow="2"
     inkscape:window-width="1366"
     inkscape:window-height="704"
     id="namedview8"
     showgrid="true"
     inkscape:zoom="9.8333333"
     inkscape:cx="24.575273"
     inkscape:cy="18.247267"
     inkscape:window-x="0"
     inkscape:window-y="27"
     inkscape:window-maximized="1"
     inkscape:current-layer="svg2">
    <inkscape:grid
       type="xygrid"
       id="grid2989" />
  </sodipodi:namedview>
  <rect
     style="fill:#f8e9b8;fill-opacity:1;stroke:none"
     id="rect2993"
     width="24"
     height="13"
     x="12"
     y="8" />
  <path
     style="fill:#749ebb;fill-opacity:1;stroke:none"
     d="M 10 21 C 8.892 21 8 21.892 8 23 L 8 35 C 8 36.108 8.892 37 10 37 L 12 37 L 12 31 L 36 31 L 36 37 L 38 37 C 39.108 37 40 36.108 40 35 L 40 23 C 40 21.892 39.108 21 38 21 L 10 21 z "
     id="rect2999" />
  <rect
     style="fill:#f8e9b8;fill-opacity:1;stroke:none"
     id="rect3021"
     width="24"
     height="9"
     x="12"
     y="31" />
  <rect
     style="fill:#55809d;fill-opacity:1;stroke:none"
     id="rect3791"
     width="24"
     height="1"
     x="12"
     y="22.016941" />
  <rect
     style="fill:#55809d;fill-opacity:1;stroke:none"
     id="rect3791-8"
     width="24"
     height="5.9830508"
     x="12"
     y="24.000008" />
  <path
     sodipodi:type="arc"
     style="fill:#eee8d5;fill-opacity:1;stroke:none"
     id="path3793"
     sodipodi:cx="35"
     sodipodi:cy="25"
     sodipodi:rx="1"
     sodipodi:ry="1"
     d="m 36,25 a 1,1 0 1 1 -2,0 1,1 0 1 1 2,0 z"
     transform="translate(-1.0169492,1.0169492)" />
  <rect
     style="fill:#eee8d5;fill-opacity:1;stroke:none;opacity:0.31141869"
     id="rect3795"
     width="2"
     height="16"
     x="36"
     y="21" />
</svg>
